X: 2260
T: Babes In The Wood
R: polka
M: 2/4
K: Dmajor
|:A/B/A/G/ FA|de f2|ga/g/ fe|df A2|
A/B/A/G/ FA|de f2|ga/g/ fe|d4:|
|:ef/e/ ed|ce a2|ee/e/ ef|ge cA|
ef/e/ ed|ce a2|e/f/e/d/ cB|A4:|

